img/logo.svg

<svg width="25" height="29" viewBox="0 0 25 29" fill="none" xmlns="http://www.w3.org/2000/svg">
<path d="M15.4646 17.8572C16.2201 17.3427 16.8342 16.6466 17.2507 15.833C17.6672 15.0194 17.8728 14.1143 17.8486 13.2006C17.7937 12.5541 17.5623 11.935 17.1798 11.411C16.7972 10.8869 16.2782 10.4779 15.6792 10.2286C15.1785 9.9981 14.662 9.80739 14.1614 9.62462C12.6913 9.0922 11.4198 8.62335 10.7444 7.18503C10.3232 6.27913 10.2835 5.92153 10.808 5.15072C11.0427 4.81262 11.336 4.51927 11.6741 4.28455C12.1232 3.961 12.6623 3.78596 13.2158 3.78392C13.3344 3.78911 13.4515 3.75565 13.5495 3.68856C13.6002 3.65259 13.6456 3.60981 13.6846 3.56141C13.7371 3.48892 13.7711 3.40467 13.7836 3.31602C13.7961 3.22736 13.7866 3.137 13.7561 3.05284C13.2237 1.46353 10.9272 0.899326 9.57625 1.19335C9.10195 1.28608 8.64917 1.46666 8.24123 1.72577C8.00334 1.88953 7.7962 2.09397 7.62935 2.3297C7.1983 1.31131 6.3894 0.499568 5.37253 0.0649404C5.04733 -0.0142257 4.70872 -0.021099 4.38057 0.0448049C4.05242 0.110709 3.74273 0.247786 3.47331 0.446374H3.42563C3.0243 0.70471 2.69169 1.05662 2.45639 1.47187C2.22108 1.88712 2.0901 2.35329 2.07472 2.83033C2.12913 4.20225 2.69627 5.50384 3.66402 6.47779C3.17161 6.57677 2.70243 6.76822 2.28133 7.04199C2.04643 7.19941 1.83506 7.38937 1.65355 7.6062C0.993992 8.40085 0.262914 9.99016 1.12909 11.1504C1.178 11.2142 1.24038 11.2666 1.31179 11.3037C1.38321 11.3407 1.4619 11.3617 1.5423 11.3649C1.66137 11.3739 1.77974 11.3401 1.87606 11.2695L1.97142 11.1901C2.30063 10.8381 2.66548 10.5212 3.06009 10.2444C3.60021 9.79368 4.27917 9.54283 4.98262 9.53415C5.68607 9.52546 6.37103 9.75947 6.92211 10.1968C7.78828 10.8961 7.77239 11.6112 7.71676 12.684C7.69026 13.1931 7.70621 13.7034 7.76444 14.2098C8.01873 16.0851 8.37632 17.7221 10.1484 18.787C12.1589 19.9869 13.8356 18.8585 15.0594 17.9923C15.1768 17.9265 15.2908 17.8549 15.4011 17.7778L15.4646 17.8572Z" fill="#F9B233"/>
<path d="M15.2257 17.3567C13.7159 18.3897 12.3014 19.4069 10.5373 18.3579C8.94795 17.4043 8.64598 15.974 8.40759 14.186C8.16919 12.398 8.8367 11.0074 7.31097 9.8154C5.35612 8.2261 3.17877 9.19557 1.61331 10.8564C0.985531 10.0617 1.52589 8.71084 2.12188 8.01949C2.91654 7.0659 3.83833 7.15332 4.79986 6.77983C3.21056 5.50838 1.50205 2.47281 3.84628 0.91529C5.87264 -0.43562 7.08052 2.31388 7.81954 3.76015C7.89106 2.56817 8.6142 1.98807 9.79029 1.73378C10.9664 1.47949 12.8417 1.98013 13.255 3.20389C12.6825 3.2155 12.1215 3.36626 11.6203 3.64316C11.1191 3.92005 10.6929 4.31475 10.3783 4.7932C10.0816 5.15307 9.91017 5.59985 9.8901 6.06587C9.87002 6.53189 10.0024 6.99176 10.2671 7.37582C11.2842 9.56906 13.5252 9.75978 15.4721 10.6975C19.048 12.3662 16.8865 17.2772 13.7477 17.9844L15.2257 17.3567Z" fill="#3AAA35"/>
<path d="M14.0576 24.7389C14.3171 24.5514 14.5371 24.3145 14.7048 24.0417C14.8725 23.769 14.9848 23.4658 15.035 23.1496C15.2702 23.1161 15.4938 23.0262 15.6866 22.8874C16.1031 22.5554 16.447 22.1415 16.6971 21.6713C16.9473 21.2012 17.0983 20.6847 17.1409 20.1538C17.1776 19.8243 17.1363 19.4908 17.0204 19.1802C16.9044 18.8696 16.717 18.5906 16.4733 18.3658C16.3854 18.2847 16.2733 18.2346 16.1543 18.2231C16.0352 18.2116 15.9156 18.2394 15.8138 18.3022L15.1701 18.7155L14.9556 18.8585L12.6987 19.8915C12.6696 19.9026 12.6427 19.9187 12.6193 19.9392C12.5263 19.9977 12.454 20.0838 12.4127 20.1856C11.9954 20.3331 11.5484 20.3762 11.1107 20.3111C10.6729 20.246 10.2578 20.0746 9.90157 19.8121C8.57154 18.6428 7.65227 17.0773 7.27921 15.3461C7.18312 14.6458 7.15915 13.9375 7.20769 13.2323C7.22731 13.0954 7.25651 12.96 7.2951 12.8271C7.50966 11.9053 7.62091 11.2378 7.24742 10.8961C7.06457 10.7229 6.82475 10.6224 6.57304 10.6137C6.32134 10.6049 6.0751 10.6884 5.88062 10.8484C4.95739 11.6759 4.35294 12.8005 4.17211 14.027H4.07676C3.11702 13.9164 2.15114 14.175 1.37494 14.7501C0.995409 14.9652 0.672688 15.2678 0.433585 15.6326C0.194482 15.9975 0.045897 16.4142 0.00018534 16.848C-0.00246349 16.9499 0.0233251 17.0504 0.0746477 17.1385C0.12597 17.2265 0.200801 17.2985 0.290747 17.3463C0.380694 17.3942 0.482194 17.416 0.583868 17.4094C0.685541 17.4028 0.783364 17.368 0.86636 17.3089L0.945824 17.2453C1.20777 17.0971 1.49716 17.0037 1.79635 16.9709C2.09555 16.9381 2.39828 16.9666 2.68612 17.0546C2.87886 17.1019 3.06551 17.1712 3.24237 17.2612C2.44772 17.8731 1.75637 19.4068 1.93119 20.1061C2.08675 20.5719 2.34131 20.9984 2.67739 21.3564C3.01347 21.7145 3.42309 21.9955 3.8781 22.1801C4.14447 22.2969 4.43567 22.3457 4.72555 22.3221C5.01543 22.2985 5.29492 22.2033 5.53892 22.045C5.5937 21.9936 5.64419 21.9378 5.6899 21.8782C5.78773 21.7808 5.84589 21.6506 5.85308 21.5128C5.86026 21.375 5.81598 21.2394 5.72881 21.1325C5.64164 21.0255 5.51782 20.9547 5.3814 20.9339C5.24497 20.9131 5.10569 20.9438 4.99061 21.0199H4.94293C4.92545 21.0278 4.90649 21.0319 4.8873 21.0319C4.86812 21.0319 4.84916 21.0278 4.83168 21.0199C4.92464 20.8835 5.04679 20.7695 5.18927 20.6862C5.29258 20.6147 5.39588 20.559 5.47535 20.5114C6.07134 20.2015 6.27 20.2094 6.71501 21.0438C6.87999 21.3622 7.02335 21.6914 7.14412 22.0292C7.40745 23.0306 8.0558 23.8875 8.94798 24.4131C9.27657 24.6233 9.65849 24.7351 10.0486 24.7351C10.4387 24.7351 10.8206 24.6233 11.1492 24.4131C11.2928 24.3159 11.4213 24.1981 11.5306 24.0635C11.6775 24.3874 11.9288 24.6528 12.2443 24.817C12.5598 24.9812 12.9213 25.0349 13.2709 24.9694C13.556 24.9383 13.8289 24.8373 14.0655 24.6754L14.0576 24.7389Z" fill="#F9B233"/>
<path d="M15.8059 19.041C14.145 20.1774 11.5068 21.7588 9.55989 20.241C8.1117 18.9852 7.10592 17.2968 6.69119 15.4254C6.58934 14.6856 6.56272 13.9375 6.61172 13.1924C6.61172 12.8666 7.08056 11.5475 6.81833 11.2932C5.9601 10.4508 4.10062 14.1142 4.82375 15.1234C3.81455 13.5341 0.516736 15.3141 0.508789 16.824C1.15561 16.4306 1.92898 16.3011 2.66866 16.4624C3.40835 16.6236 4.05765 17.0632 4.48205 17.6901C3.61588 16.6809 2.28087 19.2794 2.4398 19.9469C2.69408 20.9721 4.3708 22.3309 5.33233 21.4488C5.25045 21.5184 5.1521 21.5657 5.0467 21.5864C4.94129 21.607 4.83235 21.6003 4.7303 21.5668C4.62824 21.5333 4.53649 21.4742 4.4638 21.3951C4.39112 21.316 4.33995 21.2196 4.31517 21.1151C4.22776 20.6383 4.91117 20.2092 5.24492 20.0344C6.23029 19.5099 6.68324 19.8119 7.2236 20.7813C7.85933 21.9018 7.94674 23.2765 9.22613 23.9599C10.5055 24.6433 11.4114 23.9599 11.6101 22.5773C12.0154 23.2765 11.8564 24.6433 13.263 24.4765C13.4975 24.4115 13.7156 24.2976 13.903 24.1422C14.0903 23.9869 14.2427 23.7937 14.35 23.5752C14.4574 23.3568 14.5173 23.1181 14.5257 22.8749C14.5342 22.6317 14.4912 22.3894 14.3993 22.164C15.194 23.7533 17.6733 20.1059 16.1396 18.747C15.1866 19.4767 14.1099 20.0286 12.961 20.3761L15.8059 19.041Z" fill="#008D36"/>
<path d="M21.448 18.3815C21.6726 18.2607 21.8631 18.0853 22.002 17.8714C22.1409 17.6575 22.2237 17.412 22.2427 17.1577C22.2331 16.6956 22.0418 16.2559 21.7102 15.934C21.8936 15.852 22.0691 15.7536 22.2347 15.6399C22.4966 15.4698 22.7169 15.2429 22.8792 14.976C23.0416 14.7091 23.1418 14.4092 23.1724 14.0983C23.1502 13.708 23.0511 13.3258 22.8806 12.974C22.7101 12.6221 22.4717 12.3074 22.1791 12.0481C22.0202 11.8574 21.8692 11.6826 21.7659 11.5316C21.2414 10.7369 21.3447 10.6336 21.8056 10.3158L21.8851 10.2681C22.5208 9.86282 23.0373 9.90255 23.4744 10.3952C23.5496 10.486 23.6514 10.5509 23.7654 10.5808C23.8794 10.6107 24 10.6042 24.1101 10.5621L24.2213 10.5065C24.3007 10.4524 24.3646 10.3785 24.4064 10.292C24.4482 10.2056 24.4666 10.1096 24.4597 10.0138C24.4597 9.87076 24.4597 9.75157 24.4597 9.64032C24.4934 9.16755 24.3736 8.69654 24.118 8.29735C23.7337 7.65574 23.206 7.11179 22.5764 6.70805C22.067 6.35559 21.4582 6.17546 20.839 6.19405C20.2198 6.21264 19.6229 6.42897 19.1356 6.81135C19.0084 6.89876 18.8733 6.99412 18.7382 7.10537C18.6988 6.83603 18.7346 6.56104 18.8415 6.31072C18.9924 5.97852 19.2422 5.70101 19.5567 5.51607C19.9045 5.2904 20.202 4.99556 20.4308 4.64989C20.4719 4.57284 20.4934 4.48688 20.4934 4.39958C20.4934 4.31228 20.4719 4.22631 20.4308 4.14926C20.3965 4.06795 20.3432 3.996 20.2755 3.93934C20.2078 3.88269 20.1276 3.84297 20.0415 3.82346C19.5384 3.68799 19.0121 3.66187 18.4981 3.74685C17.9841 3.83184 17.4942 4.02595 17.0615 4.31614C16.3392 4.85298 15.7874 5.58698 15.4722 6.42992L15.3848 6.37429C15.0709 6.14127 14.7091 5.98114 14.3256 5.90554C13.9421 5.82993 13.5465 5.84076 13.1677 5.93723C12.9251 6.01877 12.6951 6.13378 12.4843 6.27893C12.1666 6.45271 11.9059 6.71477 11.7339 7.03347C11.5618 7.35216 11.4858 7.71385 11.5148 8.07485C11.5348 8.18685 11.5892 8.28986 11.6703 8.36959C11.7515 8.44933 11.8555 8.50184 11.9678 8.51986C12.3625 8.5838 12.765 8.5838 13.1598 8.51986C13.4882 8.46059 13.8246 8.46059 14.1531 8.51986C14.5191 8.62616 14.8712 8.77554 15.202 8.96486C15.4166 9.07611 15.6152 9.17942 15.8139 9.26683C16.7487 9.75215 17.4891 10.543 17.9118 11.5078C18.6508 12.9938 17.9754 14.4241 17.2522 15.9419C16.7675 16.975 16.2828 18.2623 16.8549 19.1205C17.0392 19.358 17.284 19.5416 17.5636 19.6521C17.8432 19.7625 18.1474 19.7957 18.4442 19.7483C18.9766 19.7171 19.4916 19.5473 19.9382 19.2556C20.2055 19.0854 20.4158 18.8391 20.5421 18.5484C20.6257 18.6112 20.7258 18.6484 20.8302 18.6555C20.9346 18.6625 21.0388 18.6391 21.1301 18.5881L21.448 18.3974V18.3815Z" fill="#F9B233"/>
<path d="M18.4044 11.2616C17.9134 10.1851 17.0734 9.30586 16.0204 8.76636C15.4602 8.45442 14.8755 8.18865 14.2722 7.9717C13.5252 7.78893 12.7544 8.13063 12.0471 8.01938C11.9279 7.35982 12.7226 6.69231 13.3265 6.5016C14.2801 6.19963 14.9158 6.89892 15.7661 7.24857C16.378 5.26988 17.7925 3.90308 19.938 4.40371C19.5248 5.07917 18.611 5.26988 18.3011 6.12016C18.152 6.41656 18.0995 6.75216 18.1508 7.07993C18.2021 7.40769 18.3547 7.71119 18.5871 7.94786C19.7076 6.91482 20.7486 6.2632 22.2743 7.15321C22.8249 7.50839 23.2847 7.98732 23.6173 8.5518C23.9749 9.15574 23.8477 9.39413 23.8875 10.014C23.7542 9.84301 23.5873 9.70115 23.3971 9.59709C23.2069 9.49304 22.9974 9.42899 22.7816 9.40889C22.5657 9.3888 22.348 9.41307 22.1419 9.48023C21.9358 9.54739 21.7456 9.65601 21.583 9.79941C20.6056 10.4192 20.7168 10.9755 21.2969 11.8417C21.7181 12.4774 22.6717 13.2085 22.6081 14.0508C22.5286 15.0362 21.4002 15.5686 20.5579 15.6401C21.5353 16.4348 22.2902 17.2771 20.8519 18.0241C20.542 17.5632 20.0016 17.8413 19.7394 17.3486C20.6691 18.3737 19.3341 19.0571 18.3964 19.1207C16.3701 19.2399 17.2283 17.1499 17.721 16.1169C18.4759 14.6071 19.2467 12.9701 18.4044 11.2616Z" fill="#008D36"/>
<path d="M11.8253 15.958C11.6025 15.3418 11.6025 14.6671 11.8253 14.0509C12.4689 13.0099 13.2238 13.9953 13.4146 14.7422C13.1444 14.1462 13.5735 12.9384 14.384 12.9543C15.7826 12.994 15.1787 15.1237 14.4873 15.4336C15.282 14.7502 16.172 15.1952 16.3389 16.1885C16.3611 16.4387 16.3307 16.6908 16.2494 16.9285C16.1682 17.1661 16.038 17.3841 15.8672 17.5684C15.6965 17.7526 15.489 17.899 15.2581 17.998C15.0273 18.097 14.7782 18.1466 14.5271 18.1433C13.9236 18.0508 13.3555 17.7998 12.8808 17.4158C12.4061 17.0319 12.0419 16.5288 11.8253 15.958Z" fill="#F9B233"/>
<path d="M15.274 17.8095C16.164 19.0174 17.1097 20.2411 17.9758 21.5046L19.7638 24.1111C20.1055 24.6038 20.479 25.4143 20.9876 25.6607C20.713 25.1747 20.3011 24.7805 19.8036 24.5275C19.306 24.2744 18.7449 24.1738 18.1904 24.2382C17.0382 24.4528 15.8064 26.1454 16.7998 27.1864C16.7998 25.8116 19.1837 25.6686 20.1453 25.9626C21.1068 26.2566 22.704 27.9095 23.3239 28.8552C22.8312 27.5122 22.0047 26.201 22.116 24.6673C22.2737 24.02 22.6432 23.4439 23.1659 23.0307C23.6885 22.6175 24.3343 22.3908 25.0006 22.3867C24.2059 20.8451 20.5903 22.8714 21.3452 24.3495C20.7015 24.1588 19.8989 22.8476 19.5175 22.3072C18.9453 21.5126 18.3652 20.6464 17.7613 19.8438C17.3083 19.2399 16.8872 18.6041 16.4581 17.9764C16.029 17.3486 15.7747 17.1817 15.123 17.7697C15.168 17.903 15.2412 18.025 15.3376 18.1273L15.274 17.8095Z" fill="#F9B233"/>
</svg>

<svg width="25" height="29" fill="none" xmlns="http://www.w3.org/2000/svg"><path d="M15.465 17.857a5.458 5.458 0 002.384-4.656 3.544 3.544 0 00-2.17-2.972c-.5-.23-1.017-.422-1.518-.604-1.47-.533-2.741-1.002-3.417-2.44-.42-.906-.46-1.263.064-2.034.235-.338.528-.632.866-.866.45-.324.988-.499 1.542-.501a.548.548 0 00.334-.095.675.675 0 00.135-.128.55.55 0 00.071-.508c-.532-1.59-2.829-2.154-4.18-1.86a3.878 3.878 0 00-1.335.533 2.455 2.455 0 00-.612.604A4.275 4.275 0 005.373.065a2.289 2.289 0 00-1.9.381h-.047A2.948 2.948 0 002.075 2.83a5.483 5.483 0 001.589 3.648c-.492.099-.962.29-1.383.564a2.988 2.988 0 00-.627.564c-.66.795-1.391 2.384-.525 3.544a.55.55 0 00.413.215.5.5 0 00.334-.095l.095-.08c.33-.352.694-.669 1.09-.946a3.06 3.06 0 013.861-.047c.866.7.85 1.414.795 2.487-.027.51-.01 1.02.047 1.526.255 1.875.612 3.512 2.384 4.577 2.01 1.2 3.688.072 4.911-.795.118-.066.232-.137.342-.214l.064.08z" fill="#F9B233"/><path d="M15.226 17.357c-1.51 1.033-2.925 2.05-4.689 1-1.59-.953-1.891-2.383-2.13-4.171-.238-1.788.43-3.179-1.096-4.37-1.955-1.59-4.132-.62-5.698 1.04-.627-.794-.087-2.145.509-2.837.795-.953 1.716-.866 2.678-1.24C3.21 5.51 1.502 2.474 3.846.916 5.873-.435 7.081 2.314 7.82 3.76c.071-1.192.794-1.772 1.97-2.026 1.176-.255 3.052.246 3.465 1.47a3.528 3.528 0 00-2.877 1.59 2.146 2.146 0 00-.11 2.582c1.016 2.193 3.257 2.384 5.204 3.321 3.576 1.67 1.415 6.58-1.724 7.287l1.478-.627z" fill="#3AAA35"/><path d="M14.058 24.739a2.43 2.43 0 00.977-1.59 1.47 1.47 0 00.652-.262 3.893 3.893 0 001.454-2.733 2.115 2.115 0 00-.668-1.788.548.548 0 00-.66-.064l-.643.413-.214.143-2.257 1.034a.262.262 0 00-.08.047.524.524 0 00-.206.247 2.71 2.71 0 01-2.511-.374 8.265 8.265 0 01-2.623-4.466 10.33 10.33 0 01-.071-2.114c.02-.137.049-.272.087-.405.215-.922.326-1.59-.048-1.93a1.033 1.033 0 00-1.366-.049 5.308 5.308 0 00-1.709 3.179h-.095a3.807 3.807 0 00-2.702.723A2.742 2.742 0 000 16.848a.549.549 0 00.866.46l.08-.063a2.218 2.218 0 011.74-.19c.193.047.38.116.556.206-.794.612-1.486 2.146-1.31 2.845a3.4 3.4 0 001.946 2.074 1.756 1.756 0 001.66-.135c.056-.051.106-.107.152-.167a.557.557 0 00-.7-.858h-.047a.135.135 0 01-.111 0c.093-.136.215-.25.357-.334.104-.071.207-.127.286-.175.596-.31.795-.302 1.24.533.165.318.308.647.43.985a3.926 3.926 0 001.803 2.384 2.042 2.042 0 002.201 0c.144-.097.272-.215.382-.35a1.59 1.59 0 001.74.906c.285-.03.558-.132.794-.294l-.007.064z" fill="#F9B233"/><path d="M15.806 19.041c-1.661 1.136-4.3 2.718-6.246 1.2a8.932 8.932 0 01-2.869-4.816 11.054 11.054 0 01-.08-2.233c0-.325.47-1.645.207-1.899-.858-.842-2.717 2.821-1.994 3.83-1.01-1.589-4.307.191-4.315 1.701a2.948 2.948 0 013.973.866c-.866-1.01-2.201 1.59-2.042 2.257.254 1.025 1.93 2.384 2.892 1.502a.628.628 0 01-1.017-.334c-.087-.477.596-.906.93-1.08.985-.525 1.438-.223 1.979.746.635 1.12.723 2.495 2.002 3.179 1.28.683 2.185 0 2.384-1.383.405.7.246 2.066 1.653 1.9a1.724 1.724 0 001.136-2.313c.795 1.59 3.274-2.058 1.74-3.417a9.982 9.982 0 01-3.178 1.63l2.845-1.336z" fill="#008D36"/><path d="M21.448 18.381a1.518 1.518 0 00.795-1.223 1.758 1.758 0 00-.533-1.224c.184-.082.36-.18.525-.294a2.08 2.08 0 00.937-1.542 2.964 2.964 0 00-.993-2.05c-.159-.19-.31-.365-.413-.516-.525-.795-.421-.898.04-1.216l.08-.048c.635-.405 1.151-.365 1.588.127a.563.563 0 00.636.167l.111-.055a.548.548 0 00.239-.493V9.64a2.2 2.2 0 00-.342-1.343 4.847 4.847 0 00-1.542-1.589 2.9 2.9 0 00-3.44.103 5.628 5.628 0 00-.398.294 1.47 1.47 0 01.104-.794c.15-.332.4-.61.715-.795.348-.226.645-.52.874-.866a.532.532 0 000-.5.555.555 0 00-.39-.327 3.648 3.648 0 00-2.98.493 4.673 4.673 0 00-1.589 2.114l-.087-.056a2.63 2.63 0 00-2.217-.437 2.75 2.75 0 00-.684.342 1.875 1.875 0 00-.97 1.796.549.549 0 00.454.445c.395.064.797.064 1.192 0 .328-.06.665-.06.993 0 .366.106.718.256 1.049.445.215.111.413.214.612.302a4.609 4.609 0 012.098 2.24c.739 1.487.063 2.917-.66 4.435-.485 1.033-.97 2.32-.397 3.178a1.677 1.677 0 001.59.628 3.06 3.06 0 001.493-.492c.268-.17.478-.417.604-.708a.54.54 0 00.588.04l.318-.19v-.017z" fill="#F9B233"/><path d="M18.404 11.262a5.253 5.253 0 00-2.384-2.496 11.804 11.804 0 00-1.748-.794c-.747-.183-1.518.159-2.225.047-.12-.66.676-1.327 1.28-1.517.953-.302 1.589.397 2.44.747.611-1.98 2.026-3.346 4.171-2.845-.413.675-1.327.866-1.637 1.716a1.589 1.589 0 00.286 1.828c1.12-1.033 2.162-1.685 3.687-.795.55.355 1.01.834 1.343 1.399.358.604.23.842.27 1.462a1.589 1.589 0 00-2.304-.215c-.977.62-.866 1.177-.286 2.043.421.635 1.375 1.367 1.311 2.209-.08.985-1.208 1.518-2.05 1.59.977.794 1.732 1.636.294 2.383-.31-.46-.85-.183-1.113-.675.93 1.025-.405 1.708-1.343 1.772-2.026.119-1.168-1.971-.675-3.004.755-1.51 1.526-3.147.683-4.855z" fill="#008D36"/><path d="M11.825 15.958a2.804 2.804 0 010-1.907c.644-1.041 1.399-.056 1.59.691-.27-.596.159-1.804.969-1.788 1.399.04.795 2.17.103 2.48.795-.684 1.685-.239 1.852.755a1.796 1.796 0 01-1.812 1.954 3.448 3.448 0 01-2.702-2.185z" fill="#F9B233"/><path d="M15.274 17.81c.89 1.207 1.836 2.431 2.702 3.695l1.788 2.606c.341.493.715 1.303 1.224 1.55a2.837 2.837 0 00-2.798-1.423c-1.152.215-2.384 1.907-1.39 2.948 0-1.374 2.384-1.517 3.345-1.223.962.294 2.559 1.947 3.179 2.892-.493-1.343-1.32-2.654-1.208-4.188a2.988 2.988 0 012.885-2.28c-.795-1.542-4.41.484-3.656 1.962-.643-.19-1.446-1.501-1.828-2.042-.572-.794-1.152-1.66-1.756-2.463-.453-.604-.874-1.24-1.303-1.868-.429-.627-.683-.794-1.335-.206a.977.977 0 00.215.357l-.064-.317z" fill="#F9B233"/></svg>
